svgs/sharp-light/book-user.svg

<svg xmlns="http://www.w3.org/2000/svg" viewBox="0 0 448 512"><!--! Font Awesome Pro 6.6.0 by @fontawesome - https://fontawesome.com License - https://fontawesome.com/license (Commercial License) Copyright 2024 Fonticons, Inc. --><path d="M0 64C0 28.7 28.7 0 64 0L432 0l16 0 0 16 0 384 0 16-16 0-16 0 0 64 16 0 16 0 0 32-16 0L64 512c-35.3 0-64-28.7-64-64c0 0 0 0 0 0L0 64zM64 416c-17.7 0-32 14.3-32 32s14.3 32 32 32l320 0 0-64L64 416zM32 392.6c9.4-5.4 20.3-8.6 32-8.6l352 0 0-352L64 32C46.3 32 32 46.3 32 64l0 328.6zM240 176a32 32 0 1 0 0-64 32 32 0 1 0 0 64zm0-96a64 64 0 1 1 0 128 64 64 0 1 1 0-128zM161.7 336L128 336l32-96 160 0 32 96-33.7 0-21.3-64-113.9 0-21.3 64z"/></svg>

<svg xmlns="http://www.w3.org/2000/svg" viewBox="0 0 448 512"><!--! Font Awesome Pro 6.5.2 by @fontawesome - https://fontawesome.com License - https://fontawesome.com/license (Commercial License) Copyright 2024 Fonticons, Inc. --><path d="M0 64C0 28.7 28.7 0 64 0H432h16V16 400v16H432 416v64h16 16v32H432 64c-35.3 0-64-28.7-64-64l0 0L0 64zM64 416c-17.7 0-32 14.3-32 32s14.3 32 32 32H384V416H64zM32 392.6c9.4-5.4 20.3-8.6 32-8.6H416V32H64C46.3 32 32 46.3 32 64l0 328.6zM240 176a32 32 0 1 0 0-64 32 32 0 1 0 0 64zm0-96a64 64 0 1 1 0 128 64 64 0 1 1 0-128zM161.7 336H128l32-96H320l32 96H318.3l-21.3-64H183.1l-21.3 64z"/></svg>
